!!!SOCIAL_FUNCTION:	songs of social dances
!!!PDT:	1958
!!!OTL: No_15_Social_Dance_Song_(c).krn
!!!REG: Northern California
!!!LANG: Non-Tone
!!!LING_GROUP: Penutian
**kern
*staff1
=1-
=
*clefF4
*k[f#c#g#d#a#e#]
*M2/4
32c#\LLK
16.c#\
16A#\
16A#\JJ
16.c#\LL
32d#\K
16d#\JJ
16r
=2
32A#\LLK
16.A#\
16G#\
16G#\JJ
16F#\
16r
8G#\
=3
32A#\LLK
16.A#\
16G#\
16G#\JJ
16F#\
16r
8G#\
=4
32c#\LLK
16.c#\
16A#\
16A#\JJ
16.c#\LL
32d#\K
16d#\JJ
16r
=5
32A#\LLK
16.A#\
16G#\
16G#\JJ
16F#\
16r
8G#\
=6
32A#\LLK
16.A#\
16G#\
16G#\JJ
16F#\
16r
8G#\
=7
32c#\LLK
16.c#\
16c#\
16c#\JJ
16c#\
16r
8c#\
=8
32f#\LLK
16.f#\
(16f#\
16d#\JJ)
8f#\
32f#\LLK
16.d#\JJ
=9
8.c#\L
16c#\Jk
16.c#\LL
32d#\JK
8c#\J
=10
32A#\LLK
16.A#\
16G#\
16G#\JJ
16F#\
16r
8G#\
=11
=
32A#\LLK
16.c#\
16G#\
16G#\JJ
16F#\
16r
8G#\
=12:|!
32A#\LLK
16.c#\
16G#\
16G#\JJ
8F#\
8r
==
*-
